X:9258
T:Hare in the Corn (reel) % nf<bb
B:"Northern Fiddler" 069.1 (JD)
Z:Andrew Robinson (ABCs: B.Black) Edited. Peter Dunk
L:1/8
M:C
R:reel
Q:360
K:A
=g2a|:eABA eABA|=GBde dBG=g|(3efe cA eAcA|dB=GB A=gfa|
(3efe cA eAdB|=GBde dBGB|=c2Ac B2=GB|1 dB=GB A=gfg:|2 dB=GB A^GAB||
=c2ec =gece|(3=ccc ec dB=GB|=c2ec =gcec|dB=GB A^GAB|
=cdef (3=gag fg|af=ge dB=GB|=c2Ac B2=GB|1 dB=GB A^GAB:|\
[2 dB=GB A=gfa|]

